X: 1
T:The Rose of Kelvingrove
M:C
L:1/8
Q:80
C:
S:March
K:HP
{g}A3/2d/2|
{g}fe{g}dc{Gdc}d2{g}A3/2d/2|
{gBd}B6{g}B2|  !
gf{g}ed{gBd}B2G3/2d/2|
{gcd}c6{g}c3/2B/2|
{g}A3d{g}f2a2|  !
{f}g6d2|
{g}e3{g}e{g}f2{g}e3/2d/2|
{g}e6:| |:  !
{g}A2|
a3g{a}f2e2|
{Gdc}d6B2|  !
{gf}g3f{g}e2{Gdc}d2|
d4c2A2|
a3g{a}f2e2|  !
{Gdc}d3g{f}g4|
f3A|1 {a}fe{g}dc|
{Gdc}d6:|2  !
{g}f2{g}e3/2d/2|
{g}e6|]
